X: 27513
T: Mom's Birthday On July 27th
R: slip jig
M: 9/8
K: Dmajor
|:A2 F D2 F GAB|AFF DFF GF/E/D|A2 F D2 F GAB|Ade fed B/c/dB:|
|:add edd Add|ade fed B/c/dB|1 add edd Add|g2 B BdB B/c/dB:|
2 d2 F EFA F2 B|=cBc E2 F G2 B||

